logo/hardhat.svg

<?xml version="1.0" encoding="UTF-8"?>
<svg width="512px" height="106px" viewBox="0 0 512 106" version="1.1" xmlns="http://www.w3.org/2000/svg" xmlns:xlink="http://www.w3.org/1999/xlink" preserveAspectRatio="xMidYMid">
    <title>Hardhat</title>
    <g>
				<path d="M196.962699,81.8532155 L206.506655,81.8532155 L206.506655,57.3859836 L233.75031,57.3859836 L233.75031,81.8532155 L243.381029,81.8532155 L243.381029,26.324746 L233.75031,26.324746 L233.75031,49.6640558 L206.506655,49.6640558 L206.506655,26.324746 L196.962699,26.324746 L196.962699,81.8532155 Z M271.492317,82.4605581 C280.689219,82.4605581 286.842735,78.6429758 288.931727,75.1724465 L290.840518,81.8465414 L295.872785,81.8465414 L295.872785,56.6051145 C295.872785,44.6317883 293.269888,36.8230973 275.136372,36.8230973 C259.51899,36.8230973 255.701408,43.9376824 255.701408,53.1345852 L264.711436,53.047822 C264.711436,47.494975 266.96728,44.1979721 275.209787,44.1979721 C284.146401,44.1979721 286.489008,47.9287912 286.749298,54.3492705 L272.780417,55.7374822 C260.126333,56.9521675 254.306522,60.6829865 254.306522,68.8387305 C254.306522,78.2091597 261.948361,82.4605581 271.492317,82.4605581 Z M273.834924,75.1791206 C267.327681,75.1791206 263.857152,72.8431874 263.857152,68.7586413 C263.857152,65.288112 266.460049,63.6396105 274.181977,62.7719782 L286.762646,61.3837665 L286.762646,62.7719782 C286.762646,70.4872319 282.004016,75.1791206 273.834924,75.1791206 Z M306.364462,81.8532155 L315.648128,81.8532155 L315.648128,57.2124572 C315.648128,50.0111088 317.470156,44.892078 326.753822,44.892078 C327.534691,44.892078 328.402324,45.0656045 329.269956,45.0656045 L329.269956,36.8230973 L327.794981,36.8230973 C319.118658,36.8230973 314.867259,40.6406796 313.479048,43.5906295 L311.309967,37.4304399 L306.364462,37.4304399 L306.364462,81.8532155 Z M352.268887,82.4605581 C362.767238,82.4605581 367.712743,78.5562126 369.287829,75.5194994 L371.356798,81.8532155 L376.389066,81.8532155 L376.389066,20.5116094 L367.278926,20.5116094 L367.278926,42.8965236 C365.370135,39.9465737 360.938536,36.8230973 352.182124,36.8230973 C337.432374,36.8230973 333.267739,47.5016491 333.267739,59.6418277 C333.267739,71.7820063 337.605901,82.4605581 352.268887,82.4605581 Z M354.871784,74.8253936 C344.807249,74.8253936 342.724931,68.5784408 342.724931,59.6418277 C342.724931,50.7052146 344.807249,44.6251142 354.958547,44.6251142 C365.543662,44.6251142 367.36569,51.0455935 367.36569,59.6418277 C367.36569,68.7519672 365.196609,74.8253936 354.871784,74.8253936 Z M388.015339,81.8532155 L397.132153,81.8532155 L397.305679,56.9521675 C397.305679,48.5361338 399.307908,44.6317883 408.671663,44.6317883 C418.128855,44.6317883 419.517067,48.6362452 419.517067,56.9521675 L419.517067,81.8532155 L428.71397,81.8532155 L428.71397,57.8264739 C428.71397,45.0722786 425.76402,36.8297714 411.27456,36.8297714 C402.771763,36.8297714 398.867418,39.7797213 397.132153,42.989961 L397.132153,20.5182835 L388.022013,20.5182835 L388.015339,81.8532155 Z M454.996556,82.4605581 C464.206807,82.4605581 470.353648,78.6429758 472.435966,75.1791206 L474.344757,81.8532155 L479.377024,81.8532155 L479.377024,56.6051145 C479.377024,44.6317883 476.774127,36.8230973 458.640611,36.8230973 C443.023229,36.8230973 439.205647,43.9376824 439.205647,53.1345852 L448.215675,53.047822 C448.215675,47.494975 450.471519,44.1979721 458.714026,44.1979721 C467.650639,44.1979721 469.993247,47.9287912 470.253536,54.3492705 L456.284656,55.7374822 C443.603876,56.9521675 437.804087,60.6829865 437.804087,68.8387305 C437.817435,78.2091597 445.4526,82.4605581 454.996556,82.4605581 Z M457.339163,75.1791206 C450.83192,75.1791206 447.361391,72.8431874 447.361391,68.7586413 C447.361391,65.288112 449.964288,63.6396105 457.686216,62.7719782 L470.266885,61.3837665 L470.266885,62.7719782 C470.266885,70.4872319 465.494907,75.1791206 457.339163,75.1791206 Z M512,82.1869202 L512,74.7386303 C502.369281,75.1724465 500.634016,73.2636554 500.634016,69.0990202 L500.634016,44.892078 L512,44.892078 L512,37.4304399 L500.373727,37.4304399 L500.373727,26.324746 L491.176824,26.324746 L491.176824,37.4304399 L484.836434,39.3392311 L484.836434,44.892078 L491.176824,44.892078 L491.176824,69.0990202 C491.176824,79.5973714 497.337014,83.0679008 512,82.1869202 Z" fill="#15191F"></path>
				<g transform="translate(0.000000, 0.000000)">
						<path d="M152.616676,88.4739176 C152.616676,88.4739176 129.370803,85.0300847 117.087131,84.0423186 C105.290669,83.0945971 91.3117769,82.5473214 76.3150857,82.5473214 C61.3183945,82.5473214 47.3395028,83.0945971 35.5463771,84.0423186 C23.2593684,85.0434328 0.0168329489,89.8220848 0.0168329489,89.8220848 L0.0168329489,95.8287702 C0.0168329489,101.168046 34.1781876,105.506208 76.3150857,105.506208 C118.451984,105.506208 152.613338,101.168046 152.613338,95.8287702 L152.616676,88.4739176 Z" fill="#F0D50C"></path>
						<path d="M52.8556422,8.80190989 C24.9942729,18.7291544 6.38884058,45.1081167 6.38725652,74.6852376 L6.38725652,84.5895944 C16.3296367,82.2142947 26.4667323,80.7444382 36.6742991,80.19804 C36.6053335,78.2981476 36.5697383,76.3837947 36.5675136,74.4549813 C36.5775247,48.4660558 42.8511739,25.0800273 52.8556422,8.80190989 Z" fill="#F0D50C"></path>
						<path d="M146.239653,74.6852376 C146.263485,58.4560875 140.618001,42.7282847 130.27848,30.2190804 C134.760817,44.535309 136.994295,59.460432 136.899182,74.4616554 C136.899182,77.1913602 136.829104,79.8899192 136.688948,82.5573325 C139.870861,83.0470703 143.022683,83.7155372 146.129455,84.559561 L146.239653,74.6852376 Z" fill="#FFF04D"></path>
						<path d="M146.239653,74.6852376 C146.263485,58.4560875 140.618001,42.7282847 130.27848,30.2190804 C134.760817,44.535309 136.994295,59.460432 136.899182,74.4616554 C136.899182,77.1913602 136.829104,79.8899192 136.688948,82.5573325 C139.870861,83.0470703 143.022683,83.7155372 146.129455,84.559561 L146.239653,74.6852376 Z" fill="#FFEA00"></path>
						<path d="M130.27848,30.2157433 C111.543899,7.50581139 80.6007967,-1.05289069 52.8589792,8.80190989 C42.8478369,25.0800273 36.5775247,48.4660558 36.5775247,74.4583184 C36.5775247,76.3871318 36.6131199,78.3014847 36.6843103,80.201377 C47.0958983,79.3971486 59.1493137,78.8999285 72.0570132,78.8098282 C72.0570132,78.8098282 74.9902779,78.8098282 76.3217598,78.8098282 C96.5117228,78.567538 116.691812,79.8246108 136.695622,82.5706807 C136.831329,79.9010427 136.901407,77.2024837 136.905856,74.4750036 C137.000591,59.4678375 134.76484,44.5369368 130.27848,30.2157433 L130.27848,30.2157433 Z" fill="#FFF04D"></path>
						<g transform="translate(48.524155, 0.000000)" fill="#FFF04D">
								<path d="M55.918904,34.8408911 L51.487305,7.14339731 C51.1725015,5.10559839 49.7124428,3.43120723 47.7364637,2.84194316 C34.8240461,-0.947314385 21.0948579,-0.947314385 8.18244033,2.84194316 C6.2077625,3.4322898 4.74919326,5.10646233 4.43493605,7.14339731 L0,34.8408911"></path>
						</g>
						<path d="M76.3217598,78.2225079 C74.9869408,78.2225079 73.662133,78.2225079 72.3473363,78.2225079 L72.2005062,78.2225079 L72.0536761,78.2225079 C31.8989842,78.5028199 0.0201699963,82.7208478 0.0201699963,87.8832602 L0.0201699963,95.3649206 C-0.0448860684,95.8033638 0.0485911161,96.2506344 0.283796744,96.6263245 C2.32317658,95.0946535 4.66732591,94.0181656 7.15811448,93.4694776 C13.5016928,91.92599 19.9492251,90.8463825 26.4495858,90.2392157 C30.141389,89.8342653 33.8288812,91.0378977 36.5708507,93.5428927 C41.5913629,98.1390655 48.1513421,100.688052 54.9579821,100.687511 L97.6721894,100.687511 C104.478769,100.687511 111.038634,98.1387854 116.059321,93.5428927 L116.059321,93.5428927 C118.801081,91.0350025 122.490418,89.8299488 126.183923,90.2358787 C132.683191,90.8429832 139.129618,91.9225925 145.472057,93.4661406 C147.830942,93.9197423 150.058715,94.8945356 151.992648,96.3193162 C152.10277,96.4294387 152.229578,96.5262131 152.326352,96.6263245 C152.563188,96.2487804 152.65783,95.7992326 152.593316,95.3582465 L152.593316,87.8765861 C152.616676,82.5539955 118.455321,78.2225079 76.3217598,78.2225079 Z" fill="#FFF04D"></path>
						<polygon fill="#6E6F70" points="92.3929803 56.004446 76.3017375 65.9088028 76.3017375 78.7731207"></polygon>
						<polygon fill="#0A0A0A" points="76.3184228 78.7731207 76.3184228 65.9088028 60.22718 56.004446"></polygon>
						<polygon fill="#0A0A0A" points="60.22718 50.1279054 60.22718 50.1279054 76.3184228 59.4315937 76.3184228 24.1022724"></polygon>
						<polygon fill="#6E6F70" points="92.3929803 50.1279054 76.3017375 24.0989354 76.3017375 24.0989354 76.3017375 40.8208801 76.3017375 40.8208801 76.3017375 59.4282567 92.3929803 50.1245684 92.3929803 50.1245684"></polygon>
				</g>
		</g>
</svg>

<svg viewBox="0 0 512 106" xmlns="http://www.w3.org/2000/svg" xmlns:xlink="http://www.w3.org/1999/xlink"><defs><path d="M146.23 74.68c.02-16.23-5.63-31.96-15.97-44.47 4.48 14.31 6.71 29.24 6.62 44.24 0 2.72-.08 5.42-.22 8.09 3.18.48 6.33 1.15 9.44 2l.11-9.88Z" id="a"/></defs><path fill="#15191F" d="M196.96 81.85h9.54V57.38h27.24v24.46h9.63V26.31h-9.64v23.33h-27.25V26.3h-9.55v55.52Zm74.52.6c9.19 0 15.35-3.82 17.43-7.29l1.9 6.67h5.03V56.58c0-11.98-2.61-19.79-20.74-19.79 -15.62 0-19.44 7.11-19.44 16.31l9.01-.09c0-5.56 2.25-8.85 10.49-8.85 8.93 0 11.27 3.73 11.53 10.15l-13.97 1.38c-12.66 1.21-18.48 4.94-18.48 13.1 0 9.37 7.64 13.62 17.18 13.62Zm2.34-7.29c-6.51 0-9.98-2.34-9.98-6.43 0-3.48 2.6-5.12 10.32-5.99l12.58-1.39v1.38c0 7.71-4.76 12.4-12.93 12.4Zm32.52 6.67h9.28V57.18c0-7.21 1.82-12.33 11.1-12.33 .78 0 1.64.17 2.51.17v-8.25h-1.48c-8.68 0-12.93 3.81-14.32 6.76l-2.17-6.17h-4.95v44.42Zm45.9.6c10.49 0 15.44-3.91 17.01-6.95l2.06 6.33h5.03V20.46h-9.12v22.38c-1.91-2.95-6.35-6.08-15.1-6.08 -14.75 0-18.92 10.67-18.92 22.81 0 12.14 4.33 22.81 19 22.81Zm2.6-7.64c-10.07 0-12.15-6.25-12.15-15.19s2.08-15.02 12.23-15.02c10.58 0 12.4 6.42 12.4 15.01 0 9.11-2.17 15.18-12.5 15.18Zm33.14 7.02h9.11l.17-24.91c0-8.42 2-12.33 11.36-12.33 9.45 0 10.84 4 10.84 12.32v24.9h9.19V57.76c0-12.76-2.95-21-17.44-21 -8.51 0-12.41 2.94-14.15 6.16V20.44h-9.12l-.01 61.33Zm66.98.6c9.21 0 15.35-3.82 17.43-7.29l1.9 6.67h5.03V56.54c0-11.98-2.61-19.79-20.74-19.79 -15.62 0-19.44 7.11-19.44 16.31l9.01-.09c0-5.56 2.25-8.85 10.49-8.85 8.93 0 11.27 3.73 11.53 10.15l-13.97 1.38c-12.69 1.21-18.49 4.94-18.49 13.1 .01 9.37 7.64 13.62 17.19 13.62Zm2.34-7.29c-6.51 0-9.98-2.34-9.98-6.43 0-3.48 2.6-5.12 10.32-5.99l12.58-1.39v1.38c0 7.71-4.78 12.4-12.93 12.4Zm54.66 7v-7.45c-9.64.43-11.37-1.48-11.37-5.64V44.82h11.36v-7.47h-11.63V26.24h-9.2v11.1l-6.35 1.9v5.55h6.34v24.2c0 10.49 6.16 13.96 20.82 13.08Z"/><g fill="#F0D50C"><path d="M152.61 88.47s-23.25-3.45-35.53-4.44c-11.8-.95-25.78-1.5-40.78-1.5s-28.98.54-40.77 1.49C23.24 85.02 0 89.79 0 89.79v6c0 5.33 34.16 9.67 76.29 9.67 42.13 0 76.29-4.34 76.29-9.68l0-7.36Z"/><path d="M52.85 8.8C24.98 18.72 6.38 45.1 6.38 74.68v9.9c9.94-2.38 20.07-3.85 30.28-4.4 -.07-1.9-.11-3.82-.11-5.75 .01-25.99 6.28-49.38 16.28-65.66Z"/></g><use fill="#FFF04D" xlink:href="#a"/><use fill="#FFEA00" xlink:href="#a"/><g fill="#FFF04D"><path d="M130.27 30.21C111.53 7.5 80.59-1.06 52.85 8.79 42.83 25.06 36.56 48.45 36.56 74.44c0 1.92.03 3.84.1 5.74 10.41-.81 22.46-1.31 35.37-1.4 0 0 2.93 0 4.26 0 20.18-.25 40.37 1.01 60.37 3.76 .13-2.67.2-5.37.21-8.1 .09-15.01-2.15-29.94-6.63-44.26v-.001Z"/><path d="M55.91 34.84l-4.44-27.7c-.32-2.04-1.78-3.72-3.76-4.31 -12.92-3.79-26.65-3.79-39.56 0 -1.98.59-3.44 2.26-3.75 4.3L-.04 34.82" transform="translate(48.5242 0)"/><path d="M76.32 78.22c-1.34 0-2.66 0-3.98 0h-.15 -.15c-40.16.28-72.04 4.49-72.04 9.66v7.48c-.07.43.02.88.26 1.26 2.03-1.54 4.38-2.61 6.87-3.16 6.34-1.55 12.79-2.63 19.29-3.24 3.69-.41 7.37.79 10.12 3.3 5.02 4.59 11.58 7.14 18.38 7.14h42.71c6.8 0 13.36-2.55 18.38-7.15v0c2.74-2.51 6.43-3.72 10.12-3.31 6.49.6 12.94 1.68 19.28 3.23 2.35.45 4.58 1.42 6.52 2.85 .11.11.23.2.33.3 .23-.38.33-.83.26-1.27v-7.49c.02-5.33-34.14-9.66-76.28-9.66Z"/></g><path fill="#6E6F70" d="M92.39 56l-16.1 9.9 0 12.86Z"/><g fill="#0A0A0A"><path d="M76.31 78.77l0-12.87 -16.1-9.91Z"/><path d="M60.22 50.12l0 0 16.09 9.3 0-35.33Z"/></g><path fill="#6E6F70" d="M92.39 50.12l-16.1-26.03 0 0 0 16.72 0 0 0 18.6 16.09-9.31 0 0Z"/></svg>
